coreui/free/cil-user-unfollow.svg

<svg xmlns="http://www.w3.org/2000/svg" viewBox="0 0 512 512">
  <path fill="var(--ci-primary-color, currentColor)" d="M216,16A112.127,112.127,0,0,0,104,128v79.68a80.239,80.239,0,0,0,9.768,38.308l27.455,50.334L68.4,343.656A79.727,79.727,0,0,0,32,410.732V496H312V464H64V410.732a47.838,47.838,0,0,1,21.84-40.246L183.5,307.007l-41.64-76.341A48.149,48.149,0,0,1,136,207.68V128a80,80,0,0,1,160,0v79.68a48.143,48.143,0,0,1-5.861,22.985L248.5,307.007,312,348.283V310.117l-21.223-13.8,27.454-50.334A80.226,80.226,0,0,0,328,207.68V128A112.127,112.127,0,0,0,216,16Z" class="ci-primary"/>
  <polygon fill="var(--ci-primary-color, currentColor)" points="483.314 355.314 460.686 332.686 412 381.372 363.314 332.686 340.686 355.314 389.372 404 340.686 452.686 363.314 475.314 412 426.628 460.686 475.314 483.314 452.686 434.628 404 483.314 355.314" class="ci-primary"/>
</svg>

<svg viewBox="0 0 512 512" xmlns="http://www.w3.org/2000/svg"><g><path d="M216 16v0c-61.83.06-111.94 50.17-112 112v79.68h-.001c.01 13.38 3.36 26.55 9.76 38.3l27.45 50.334 -72.823 47.334 0-.001c-22.75 14.72-36.46 39.98-36.4 67.07v85.26h280v-32h-248V410.7v0c-.04-16.26 8.19-31.42 21.84-40.25l97.66-63.48 -41.64-76.35 0 0c-3.84-7.06-5.86-14.96-5.86-22.99v-79.68 0c0-44.19 35.81-80 80-80 44.18 0 80 35.81 80 80v79.68 0c-.01 8.03-2.03 15.93-5.87 22.98l-41.64 76.34 63.5 41.27v-38.17l-21.23-13.8 27.45-50.334v0c6.4-11.76 9.75-24.93 9.76-38.31v-79.68 0c-.07-61.83-50.18-111.94-112-112Z"/><path d="M483.314 355.314l-22.63-22.63 -48.69 48.68 -48.69-48.69 -22.63 22.62 48.68 48.68 -48.69 48.68 22.62 22.62 48.68-48.69 48.68 48.68 22.62-22.63 -48.69-48.69 48.68-48.69Z"/></g></svg>
